packages/seti-ui/icons/haxe.svg

<svg id="Layer_1" xmlns="http://www.w3.org/2000/svg" viewBox="0 0 32 32"><style>.st0{fill:#231f20}</style><path class="st0" d="M24.9 20l-2-4 2-4 .1-.1V7h-4.9l-.1.1-4 2-4-2-.1-.1H7v4.9l.1.1 2 4-2 4-.1.1V25h4.9l.1-.1 4-2 4 2 .1.1H25v-4.9l-.1-.1zM22 15.6L16.4 10l7.5-1.9-1.9 7.5zm-12 0L8.1 8.1l7.5 1.9-5.6 5.6zm0 .8l5.6 5.6-7.5 1.9 1.9-7.5zm12 0l1.9 7.5-7.5-1.9 5.6-5.6z"/></svg>

<?xml version="1.0" encoding="utf-8"?>
<!-- Generator: Adobe Illustrator 22.0.0, SVG Export Plug-In . SVG Version: 6.00 Build 0)  -->
<svg version="1.1" id="Layer_1" xmlns="http://www.w3.org/2000/svg" xmlns:xlink="http://www.w3.org/1999/xlink" x="0px" y="0px"
	 viewBox="0 0 32 32" style="enable-background:new 0 0 32 32;" xml:space="preserve">
<style type="text/css">
	.st0{fill:#231F20;}
</style>
<path class="st0" d="M24.9,20l-2-4l2-4l0.1-0.1V7h-4.9L20,7.1l-4,2l-4-2L11.9,7H7v4.9L7.1,12l2,4l-2,4L7,20.1V25h4.9l0.1-0.1l4-2
	l4,2l0.1,0.1H25v-4.9L24.9,20z M22,15.6L16.4,10l7.5-1.9L22,15.6z M10,15.6L8.1,8.1l7.5,1.9L10,15.6z M10,16.4l5.6,5.6l-7.5,1.9
	L10,16.4z M22,16.4l1.9,7.5L16.4,22L22,16.4z"/>
</svg>
